Yaru++/apps/scalable/com.github.philip-scott.spice-up.svg

<svg height="256" width="256" xmlns="http://www.w3.org/2000/svg" xmlns:xlink="http://www.w3.org/1999/xlink">
  <filter id="filter877" color-interpolation-filters="sRGB" height="1.024643" width="1.02339" x="-.011695" y="-.012321">
    <feGaussianBlur stdDeviation="1.1110149"/>
  </filter>
  <filter id="filter895" color-interpolation-filters="sRGB" height="1.098572" width="1.093559" x="-.04678" y="-.049286">
    <feGaussianBlur stdDeviation="4.4440597"/>
  </filter>
  <filter id="filter905" color-interpolation-filters="sRGB" height="1.049286" width="1.04678" x="-.02339" y="-.024643">
    <feGaussianBlur stdDeviation="2.2220299"/>
  </filter>
  <g fill="#000103">
    <path d="m120.33831 11.594029v11.592041h-98.541296c-4.281765 0-5.797014 3.513405-5.797014 5.797014v9.661692h11.594029v150.710444h-11.594029v9.66169c0 2.2836 1.515253 5.79702 5.797014 5.79702h57.411517c-22.830275 9.4578-44.696917 21.25373-45.819476 21.25373v1.93234h27.050747s52.618518-23.18607 69.560198-23.18607 69.56019 23.18607 69.56019 23.18607h27.05076v-1.93234c-1.12257 0-22.98921-11.79593-45.81948-21.25373h57.41152c4.28177 0 5.79701-3.51342 5.79701-5.79702v-9.66169h-11.59402v-150.710444h11.59402v-9.661692c0-2.283609-1.51524-5.797014-5.79701-5.797014h-98.5413v-11.592041z" filter="url(#filter905)" opacity=".1"/>
    <path d="m120.33831 11.594029v11.592041h-98.541296c-4.281765 0-5.797014 3.513405-5.797014 5.797014v9.661692h11.594029v150.710444h-11.594029v9.66169c0 2.2836 1.515253 5.79702 5.797014 5.79702h57.411517c-22.830275 9.4578-44.696917 21.25373-45.819476 21.25373v1.93234h27.050747s52.618518-23.18607 69.560198-23.18607 69.56019 23.18607 69.56019 23.18607h27.05076v-1.93234c-1.12257 0-22.98921-11.79593-45.81948-21.25373h57.41152c4.28177 0 5.79701-3.51342 5.79701-5.79702v-9.66169h-11.59402v-150.710444h11.59402v-9.661692c0-2.283609-1.51524-5.797014-5.79701-5.797014h-98.5413v-11.592041z" filter="url(#filter895)" opacity=".1"/>
    <path d="m120.33831 11.594029v11.592041h-98.541296c-4.281765 0-5.797014 3.513405-5.797014 5.797014v9.661692h11.594029v150.710444h-11.594029v9.66169c0 2.2836 1.515253 5.79702 5.797014 5.79702h57.411517c-22.830275 9.4578-44.696917 21.25373-45.819476 21.25373v1.93234h27.050747s52.618518-23.18607 69.560198-23.18607 69.56019 23.18607 69.56019 23.18607h27.05076v-1.93234c-1.12257 0-22.98921-11.79593-45.81948-21.25373h57.41152c4.28177 0 5.79701-3.51342 5.79701-5.79702v-9.66169h-11.59402v-150.710444h11.59402v-9.661692c0-2.283609-1.51524-5.797014-5.79701-5.797014h-98.5413v-11.592041z" filter="url(#filter877)" opacity=".1"/>
  </g>
  <path d="m230.61018 188.0339v-148.067808h-201.220349v148.067808z" fill="#1c71d8"/>
  <path d="m65 107.79661c-8.916673 0-36.610169 12.20339-36.610169 12.20339h-14.237289v-1.01695c.98517 0 32.313234-17.28813 45.762712-17.28813h5.084746 5.084746c13.449478 0 44.777544 17.28813 45.762714 17.28813v1.01695h-14.23729s-27.693497-12.20339-36.61017-12.20339z" fill="#241f31" transform="matrix(1.8666667 0 0 1.8666667 8.666666 1.999996)"/>
  <g fill="#fafafa" transform="matrix(5.0416139 0 0 4.8945568 -16.477578 -25.149513)">
    <path d="m13.239563 36.18624v-1.55136h4.518327v1.55136zm5.271381 0v-1.55136h2.259164v1.551361zm3.012218 0v-1.55136h4.518328v1.55136zm-8.283599-4.654081-.00001-1.55136h4.518337v1.55136zm5.271381-.000003v-1.55136h3.012218v1.55136zm3.765273 0v-1.55136h5.271382v1.55136z"/>
    <path d="m13.239563 25.326719v1.55136h3.012218v-1.55136zm3.765272 0v1.55136h8.2836v-1.55136z"/>
    <path d="m27.547599 20.672638v1.551361h-3.765273v-1.551361zm-5.271382 0v1.551361h-3.012218v-1.551361zm-3.765273 0v1.551361h-1.506109v-1.551361zm-2.259163 0v1.551361l-3.012218-.000005v-1.551361z"/>
  </g>
  <path d="m149.79386 76.049636a5.0597788 5.1077512 0 0 0 -4.60742 5.08375v65.764354a5.0597788 5.1077512 0 0 0 7.50044 4.43475l58.28912-32.88215a5.0597788 5.1077512 0 0 0 0-8.86952l-58.28912-32.882181a5.0597788 5.1077512 0 0 0 -2.89302-.649003z" fill="#fafafa" fill-rule="evenodd"/>
  <path d="m120.50781 191.83008c-25.10569 0-83.584842 32.27148-85.423826 32.27148v1.89844h.359375c5.236781-1.9564 60.771536-32.16992 85.064451-32.16992h9.49219 9.49219c24.29292 0 79.82767 30.21352 85.06445 32.16992h.35938v-1.89844c-1.83899 0-60.31814-32.27148-85.42383-32.27148h-9.49219z" fill="#fdfdfd" opacity=".3"/>
  <path d="m120.50781 13.390625v11.388672h-96.812498c-4.206646 0-5.695312 3.451766-5.695312 5.695312v9.492188h224v-9.492188c0-2.243546-1.48866-5.695312-5.69531-5.695312h-96.8125v-11.388672zm-102.50781 174.642575v9.49219c0 2.24353 1.488669 5.69531 5.695312 5.69531h212.609378c4.20665 0 5.69531-3.45178 5.69531-5.69531v-9.49219z" fill="#3d3846"/>
  <path d="m120.50781 13.390625v2h18.98438v-2zm-96.812498 11.388672c-4.206646 0-5.695312 3.451766-5.695312 5.695312v2c0-2.243546 1.488666-5.695312 5.695312-5.695312h96.812498v-2zm115.796878 0v2h96.8125c4.20665 0 5.69531 3.451766 5.69531 5.695312v-2c0-2.243546-1.48866-5.695312-5.69531-5.695312zm-121.49219 163.253903v2h224v-2z" fill="#e1d5f6" opacity=".3"/>
  <path d="m18 37.966797v2h224v-2zm0 157.558593v2c0 2.24353 1.48867 5.69531 5.695312 5.69531h212.609378c4.20665 0 5.69531-3.45178 5.69531-5.69531v-2c0 2.24353-1.48866 5.69531-5.69531 5.69531h-212.609378c-4.206642 0-5.695312-3.45178-5.695312-5.69531z" fill="#030009" opacity=".2"/>
</svg>

<?xml version="1.0" encoding="UTF-8" standalone="no"?>
<svg
   xmlns:osb="http://www.openswatchbook.org/uri/2009/osb"
   xmlns:dc="http://purl.org/dc/elements/1.1/"
   xmlns:cc="http://creativecommons.org/ns#"
   xmlns:rdf="http://www.w3.org/1999/02/22-rdf-syntax-ns#"
   xmlns:svg="http://www.w3.org/2000/svg"
   xmlns="http://www.w3.org/2000/svg"
   xmlns:sodipodi="http://sodipodi.sourceforge.net/DTD/sodipodi-0.dtd"
   xmlns:inkscape="http://www.inkscape.org/namespaces/inkscape"
   id="svg2453"
   height="256"
   width="256"
   version="1.0"
   inkscape:version="0.92.4 (5da689c313, 2019-01-14)"
   sodipodi:docname="com.github.philip-scott.spice-up.svg">
  <sodipodi:namedview
     pagecolor="#ffffff"
     bordercolor="#666666"
     borderopacity="1"
     objecttolerance="10"
     gridtolerance="10"
     guidetolerance="10"
     inkscape:pageopacity="0"
     inkscape:pageshadow="2"
     inkscape:window-width="1920"
     inkscape:window-height="1016"
     id="namedview59"
     showgrid="false"
     inkscape:zoom="3.2773438"
     inkscape:cx="128"
     inkscape:cy="128"
     inkscape:window-x="0"
     inkscape:window-y="27"
     inkscape:window-maximized="1"
     inkscape:current-layer="svg2453"
     units="px"
     fit-margin-top="0"
     fit-margin-left="0"
     fit-margin-right="0"
     fit-margin-bottom="0"
     showguides="false"
     inkscape:guide-bbox="true"
     inkscape:snap-bbox="true"
     inkscape:snap-bbox-edge-midpoints="true"
     inkscape:bbox-nodes="true"
     inkscape:snap-smooth-nodes="true"
     inkscape:snap-bbox-midpoints="true">
    <inkscape:grid
       type="xygrid"
       id="grid4314"
       originx="0"
       originy="0"
       units="px"
       dotted="false" />
    <sodipodi:guide
       position="52,3"
       orientation="0,1"
       id="guide4204"
       inkscape:locked="false" />
    <sodipodi:guide
       position="11,35"
       orientation="1,0"
       id="guide4326"
       inkscape:locked="false" />
    <sodipodi:guide
       position="32,60.22561"
       orientation="1,0"
       id="guide4246"
       inkscape:locked="false" />
    <sodipodi:guide
       position="24,12"
       orientation="1,6.123234e-17"
       id="guide1497"
       inkscape:locked="false" />
  </sodipodi:namedview>
  <metadata
     id="metadata35">
    <rdf:RDF>
      <cc:Work
         rdf:about="">
        <dc:format>image/svg+xml</dc:format>
        <dc:type
           rdf:resource="http://purl.org/dc/dcmitype/StillImage" />
        <dc:title></dc:title>
      </cc:Work>
    </rdf:RDF>
  </metadata>
  <defs
     id="defs2455">
    <inkscape:path-effect
       oposite_fuse="false"
       fuse_paths="true"
       discard_orig_path="false"
       mode="free"
       is_visible="true"
       id="path-effect868"
       center_point="65,110.84744"
       end_point="65,119.99999"
       start_point="65,101.6949"
       effect="mirror_symmetry" />
    <inkscape:path-effect
       effect="mirror_symmetry"
       start_point="65,101.6949"
       end_point="65,119.99999"
       center_point="65,110.84744"
       id="path-effect861"
       is_visible="true"
       mode="free"
       discard_orig_path="false"
       fuse_paths="true"
       oposite_fuse="false" />
    <inkscape:path-effect
       oposite_fuse="false"
       fuse_paths="true"
       discard_orig_path="false"
       mode="free"
       is_visible="true"
       id="path-effect857"
       center_point="65,110.84744"
       end_point="65,119.99999"
       start_point="65,101.6949"
       effect="mirror_symmetry" />
    <linearGradient
       id="linearGradient1043"
       y2="39.999001"
       gradientUnits="userSpaceOnUse"
       x2="25.058001"
       y1="47.028"
       x1="25.058001">
      <stop
         stop-color="#181818"
         stop-opacity="0"
         offset="0"
         id="stop1037" />
      <stop
         stop-color="#181818"
         offset=".5"
         id="stop1039"
         style="stop-color:#000000;stop-opacity:0.627451" />
      <stop
         stop-color="#181818"
         stop-opacity="0"
         offset="1"
         id="stop1041" />
    </linearGradient>
    <inkscape:path-effect
       effect="mirror_symmetry"
       start_point="32,51.5"
       end_point="32,60.5"
       center_point="32,56"
       id="path-effect1868"
       is_visible="true"
       mode="free"
       discard_orig_path="false"
       fuse_paths="true"
       oposite_fuse="false" />
    <linearGradient
       id="linearGradient6490"
       osb:paint="gradient">
      <stop
         style="stop-color:#000000;stop-opacity:1;"
         offset="0"
         id="stop6492" />
      <stop
         style="stop-color:#000000;stop-opacity:0;"
         offset="1"
         id="stop6494" />
    </linearGradient>
    <linearGradient
       id="linearGradient5641"
       osb:paint="solid">
      <stop
         style="stop-color:#000000;stop-opacity:1;"
         offset="0"
         id="stop5643" />
    </linearGradient>
    <radialGradient
       r="2.5"
       gradientTransform="matrix(2.0038,0,0,1.4,27.988,-17.4)"
       cx="4.993"
       cy="43.5"
       gradientUnits="userSpaceOnUse"
       id="c">
      <stop
         id="stop4912"
         offset="0"
         stop-color="#181818"
         style="stop-color:#000000;stop-opacity:0.627451" />
      <stop
         id="stop4914"
         offset="1"
         stop-opacity="0"
         stop-color="#181818" />
    </radialGradient>
    <radialGradient
       r="2.5"
       gradientTransform="matrix(2.0038,0,0,1.4,-20.012,-104.4)"
       cx="4.993"
       cy="43.5"
       gradientUnits="userSpaceOnUse"
       id="b">
      <stop
         id="stop4917"
         offset="0"
         stop-color="#181818"
         style="stop-color:#000000;stop-opacity:0.627451" />
      <stop
         id="stop4919"
         offset="1"
         stop-opacity="0"
         stop-color="#181818" />
    </radialGradient>
    <inkscape:path-effect
       effect="mirror_symmetry"
       start_point="65,101.6949"
       end_point="65,119.99999"
       center_point="65,110.84744"
       id="path-effect1868-0"
       is_visible="true"
       mode="free"
       discard_orig_path="false"
       fuse_paths="true"
       oposite_fuse="false" />
    <inkscape:path-effect
       effect="mirror_symmetry"
       start_point="32,52.516466"
       end_point="32,60.5"
       center_point="32,56.508233"
       id="path-effect1868-1"
       is_visible="true"
       mode="free"
       discard_orig_path="false"
       fuse_paths="true"
       oposite_fuse="false" />
    <filter
       inkscape:collect="always"
       style="color-interpolation-filters:sRGB"
       id="filter877"
       x="-0.011694894"
       width="1.0233898"
       y="-0.012321452"
       height="1.0246429">
      <feGaussianBlur
         inkscape:collect="always"
         stdDeviation="1.1110149"
         id="feGaussianBlur879" />
    </filter>
    <filter
       inkscape:collect="always"
       style="color-interpolation-filters:sRGB"
       id="filter895"
       x="-0.046779576"
       width="1.0935592"
       y="-0.049285809"
       height="1.0985716">
      <feGaussianBlur
         inkscape:collect="always"
         stdDeviation="4.4440597"
         id="feGaussianBlur897" />
    </filter>
    <filter
       inkscape:collect="always"
       style="color-interpolation-filters:sRGB"
       id="filter905"
       x="-0.023389788"
       width="1.0467796"
       y="-0.024642904"
       height="1.0492858">
      <feGaussianBlur
         inkscape:collect="always"
         stdDeviation="2.2220299"
         id="feGaussianBlur907" />
    </filter>
  </defs>
  <path
     style="color:#000000;display:inline;overflow:visible;visibility:visible;opacity:0.1;fill:#000103;fill-opacity:1;fill-rule:nonzero;stroke:none;stroke-width:3.86440659;marker:none;enable-background:accumulate;filter:url(#filter905)"
     d="M 120.33831,11.594029 V 23.18607 H 21.797014 C 17.515249,23.18607 16,26.699475 16,28.983084 v 9.661692 H 27.594029 V 189.35522 H 16 v 9.66169 c 0,2.2836 1.515253,5.79702 5.797014,5.79702 h 57.411517 c -22.830275,9.4578 -44.696917,21.25373 -45.819476,21.25373 V 228 h 27.050747 c 0,0 52.618518,-23.18607 69.560198,-23.18607 16.94168,0 69.56019,23.18607 69.56019,23.18607 h 27.05076 v -1.93234 c -1.12257,0 -22.98921,-11.79593 -45.81948,-21.25373 h 57.41152 c 4.28177,0 5.79701,-3.51342 5.79701,-5.79702 v -9.66169 H 232.40598 V 38.644776 H 244 v -9.661692 c 0,-2.283609 -1.51524,-5.797014 -5.79701,-5.797014 h -98.5413 V 11.594029 Z"
     id="path899"
     inkscape:connector-curvature="0" />
  <path
     inkscape:connector-curvature="0"
     id="path881"
     d="M 120.33831,11.594029 V 23.18607 H 21.797014 C 17.515249,23.18607 16,26.699475 16,28.983084 v 9.661692 H 27.594029 V 189.35522 H 16 v 9.66169 c 0,2.2836 1.515253,5.79702 5.797014,5.79702 h 57.411517 c -22.830275,9.4578 -44.696917,21.25373 -45.819476,21.25373 V 228 h 27.050747 c 0,0 52.618518,-23.18607 69.560198,-23.18607 16.94168,0 69.56019,23.18607 69.56019,23.18607 h 27.05076 v -1.93234 c -1.12257,0 -22.98921,-11.79593 -45.81948,-21.25373 h 57.41152 c 4.28177,0 5.79701,-3.51342 5.79701,-5.79702 v -9.66169 H 232.40598 V 38.644776 H 244 v -9.661692 c 0,-2.283609 -1.51524,-5.797014 -5.79701,-5.797014 h -98.5413 V 11.594029 Z"
     style="color:#000000;display:inline;overflow:visible;visibility:visible;opacity:0.1;fill:#000103;fill-opacity:1;fill-rule:nonzero;stroke:none;stroke-width:3.86440659;marker:none;enable-background:accumulate;filter:url(#filter895)" />
  <path
     style="color:#000000;display:inline;overflow:visible;visibility:visible;opacity:0.1;fill:#000103;fill-opacity:1;fill-rule:nonzero;stroke:none;stroke-width:3.86440659;marker:none;enable-background:accumulate;filter:url(#filter877)"
     d="M 120.33831,11.594029 V 23.18607 H 21.797014 C 17.515249,23.18607 16,26.699475 16,28.983084 v 9.661692 H 27.594029 V 189.35522 H 16 v 9.66169 c 0,2.2836 1.515253,5.79702 5.797014,5.79702 h 57.411517 c -22.830275,9.4578 -44.696917,21.25373 -45.819476,21.25373 V 228 h 27.050747 c 0,0 52.618518,-23.18607 69.560198,-23.18607 16.94168,0 69.56019,23.18607 69.56019,23.18607 h 27.05076 v -1.93234 c -1.12257,0 -22.98921,-11.79593 -45.81948,-21.25373 h 57.41152 c 4.28177,0 5.79701,-3.51342 5.79701,-5.79702 v -9.66169 H 232.40598 V 38.644776 H 244 v -9.661692 c 0,-2.283609 -1.51524,-5.797014 -5.79701,-5.797014 h -98.5413 V 11.594029 Z"
     id="path864"
     inkscape:connector-curvature="0" />
  <path
     id="rect5505-21-3-8-5-2"
     d="M 230.61018,188.0339 V 39.966092 H 29.389831 V 188.0339 Z"
     style="color:#000000;display:inline;overflow:visible;visibility:visible;opacity:1;fill:#1c71d8;fill-opacity:1;fill-rule:nonzero;stroke:none;stroke-width:3.79660988;marker:none;enable-background:accumulate"
     inkscape:connector-curvature="0"
     sodipodi:nodetypes="ccccc" />
  <path
     id="path1863-6"
     style="display:inline;opacity:1;fill:#241f31;fill-opacity:1;stroke:none;stroke-width:2.03389835px;stroke-linecap:butt;stroke-linejoin:miter;stroke-opacity:1"
     d="M 65,107.79661 C 56.083327,107.79661 28.389831,120 28.389831,120 H 14.152542 v -1.01695 c 0.98517,0 32.313234,-17.28813 45.762712,-17.28813 H 65 70.084746 c 13.449478,0 44.777544,17.28813 45.762714,17.28813 V 120 h -14.23729 c 0,0 -27.693497,-12.20339 -36.61017,-12.20339 z"
     inkscape:connector-curvature="0"
     sodipodi:nodetypes="cccccc"
     inkscape:path-effect="#path-effect1868-0"
     inkscape:original-d="M 65,107.79661 C 56.083327,107.79661 28.389831,120 28.389831,120 H 14.152542 v -1.01695 c 0.98517,0 32.313234,-17.28813 45.762712,-17.28813 H 65"
     transform="matrix(1.8666667,0,0,1.8666667,8.6666664,1.999996)" />
  <g
     id="g4281"
     transform="matrix(5.0416139,0,0,4.8945568,-16.477578,-25.149513)">
    <path
       sodipodi:nodetypes="cccccccccccccccccccccccccccccc"
       inkscape:connector-curvature="0"
       style="color:#000000;font-style:normal;font-variant:normal;font-weight:normal;font-stretch:normal;font-size:medium;line-height:normal;font-family:Sans;-inkscape-font-specification:Sans;text-indent:0;text-align:start;text-decoration:none;text-decoration-line:none;letter-spacing:normal;word-spacing:normal;text-transform:none;writing-mode:lr-tb;direction:ltr;baseline-shift:baseline;text-anchor:start;display:inline;overflow:visible;visibility:visible;fill:#fafafa;fill-opacity:1;stroke:none;stroke-width:0.73333365;stroke-miterlimit:4;stroke-dasharray:none;marker:none;enable-background:accumulate"
       id="path3475-4"
       d="m 13.239563,36.18624 v -1.55136 h 4.518327 v 1.55136 z m 5.271381,0 v -1.55136 h 2.259164 v 1.551361 z m 3.012218,0 v -1.55136 h 4.518328 v 1.55136 z m -8.283599,-4.654081 -10e-6,-1.55136 h 4.518337 v 1.55136 z m 5.271381,-3e-6 v -1.55136 h 3.012218 v 1.55136 z m 3.765273,0 v -1.55136 h 5.271382 v 1.55136 z" />
    <path
       sodipodi:nodetypes="cccccccccc"
       inkscape:connector-curvature="0"
       id="path3475-4-3"
       d="m 13.239563,25.326719 v 1.55136 h 3.012218 v -1.55136 z m 3.765272,0 v 1.55136 h 8.2836 v -1.55136 z"
       style="color:#000000;font-style:normal;font-variant:normal;font-weight:normal;font-stretch:normal;font-size:medium;line-height:normal;font-family:Sans;-inkscape-font-specification:Sans;text-indent:0;text-align:start;text-decoration:none;text-decoration-line:none;letter-spacing:normal;word-spacing:normal;text-transform:none;writing-mode:lr-tb;direction:ltr;baseline-shift:baseline;text-anchor:start;display:inline;overflow:visible;visibility:visible;fill:#fafafa;fill-opacity:1;stroke:none;stroke-width:0.73333365;stroke-miterlimit:4;stroke-dasharray:none;marker:none;enable-background:accumulate" />
    <path
       style="color:#000000;font-style:normal;font-variant:normal;font-weight:normal;font-stretch:normal;font-size:medium;line-height:normal;font-family:Sans;-inkscape-font-specification:Sans;text-indent:0;text-align:start;text-decoration:none;text-decoration-line:none;letter-spacing:normal;word-spacing:normal;text-transform:none;writing-mode:lr-tb;direction:ltr;baseline-shift:baseline;text-anchor:start;display:inline;overflow:visible;visibility:visible;fill:#fafafa;fill-opacity:1;stroke:none;stroke-width:0.73333365;stroke-miterlimit:4;stroke-dasharray:none;marker:none;enable-background:accumulate"
       d="m 27.547599,20.672638 v 1.551361 h -3.765273 v -1.551361 z m -5.271382,0 v 1.551361 h -3.012218 v -1.551361 z m -3.765273,0 v 1.551361 h -1.506109 v -1.551361 z m -2.259163,0 v 1.551361 l -3.012218,-5e-6 v -1.551361 z"
       id="path4279"
       inkscape:connector-curvature="0"
       sodipodi:nodetypes="cccccccccccccccccccc" />
  </g>
  <path
     inkscape:connector-curvature="0"
     d="m 149.79386,76.049636 a 5.0597788,5.1077512 0 0 0 -4.60742,5.08375 v 65.764354 a 5.0597788,5.1077512 0 0 0 7.50044,4.43475 L 210.976,118.45034 a 5.0597788,5.1077512 0 0 0 0,-8.86952 L 152.68688,76.698639 a 5.0597788,5.1077512 0 0 0 -2.89302,-0.649003 z"
     id="path4044-6"
     style="fill:#fafafa;fill-opacity:1;fill-rule:evenodd;stroke:none;stroke-width:3.44498825" />
  <path
     style="display:inline;opacity:0.3;fill:#fdfdfd;fill-opacity:1;stroke:none;stroke-width:3.79661036px;stroke-linecap:butt;stroke-linejoin:miter;stroke-opacity:1"
     d="M 120.50781 191.83008 C 95.40212 191.83008 36.922968 224.10156 35.083984 224.10156 L 35.083984 226 L 35.443359 226 C 40.68014 224.0436 96.214895 193.83008 120.50781 193.83008 L 130 193.83008 L 139.49219 193.83008 C 163.78511 193.83008 219.31986 224.0436 224.55664 226 L 224.91602 226 L 224.91602 224.10156 C 223.07703 224.10156 164.59788 191.83008 139.49219 191.83008 L 130 191.83008 L 120.50781 191.83008 z "
     id="path855" />
  <path
     style="color:#000000;display:inline;overflow:visible;visibility:visible;opacity:1;fill:#3d3846;fill-opacity:1;fill-rule:nonzero;stroke:none;stroke-width:3.79661036;stroke-miterlimit:4;stroke-dasharray:none;stroke-opacity:1;marker:none;enable-background:accumulate"
     d="M 120.50781 13.390625 L 120.50781 24.779297 L 23.695312 24.779297 C 19.488666 24.779297 18 28.231063 18 30.474609 L 18 39.966797 L 242 39.966797 L 242 30.474609 C 242 28.231063 240.51134 24.779297 236.30469 24.779297 L 139.49219 24.779297 L 139.49219 13.390625 L 120.50781 13.390625 z M 18 188.0332 L 18 197.52539 C 18 199.76892 19.488669 203.2207 23.695312 203.2207 L 236.30469 203.2207 C 240.51134 203.2207 242 199.76892 242 197.52539 L 242 188.0332 L 18 188.0332 z "
     id="path4473-1" />
  <path
     style="color:#000000;display:inline;overflow:visible;visibility:visible;opacity:0.3;fill:#e1d5f6;fill-opacity:1;fill-rule:nonzero;stroke:none;stroke-width:3.79661036;stroke-miterlimit:4;stroke-dasharray:none;stroke-opacity:1;marker:none;enable-background:accumulate"
     d="M 120.50781 13.390625 L 120.50781 15.390625 L 139.49219 15.390625 L 139.49219 13.390625 L 120.50781 13.390625 z M 23.695312 24.779297 C 19.488666 24.779297 18 28.231063 18 30.474609 L 18 32.474609 C 18 30.231063 19.488666 26.779297 23.695312 26.779297 L 120.50781 26.779297 L 120.50781 24.779297 L 23.695312 24.779297 z M 139.49219 24.779297 L 139.49219 26.779297 L 236.30469 26.779297 C 240.51134 26.779297 242 30.231063 242 32.474609 L 242 30.474609 C 242 28.231063 240.51134 24.779297 236.30469 24.779297 L 139.49219 24.779297 z M 18 188.0332 L 18 190.0332 L 242 190.0332 L 242 188.0332 L 18 188.0332 z "
     id="path845" />
  <path
     style="color:#000000;display:inline;overflow:visible;visibility:visible;opacity:0.2;fill:#030009;fill-opacity:1;fill-rule:nonzero;stroke:none;stroke-width:3.79661036;stroke-miterlimit:4;stroke-dasharray:none;stroke-opacity:1;marker:none;enable-background:accumulate"
     d="M 18 37.966797 L 18 39.966797 L 242 39.966797 L 242 37.966797 L 18 37.966797 z M 18 195.52539 L 18 197.52539 C 18 199.76892 19.48867 203.2207 23.695312 203.2207 L 236.30469 203.2207 C 240.51134 203.2207 242 199.76892 242 197.52539 L 242 195.52539 C 242 197.76892 240.51134 201.2207 236.30469 201.2207 L 23.695312 201.2207 C 19.48867 201.2207 18 197.76892 18 195.52539 z "
     id="path850" />
</svg>
